src/main/webapp/WEB-INF/classes/static/images/banks/logo_seb.svg

<?xml version="1.0" encoding="UTF-8"?>
<svg enable-background="new 0 0 88 31" version="1.1" viewBox="0 0 88 31" xml:space="preserve" xmlns="http://www.w3.org/2000/svg">
<rect x=".1" width="88" height="31" fill="#60CD18"/>
<path d="m59.9 10.9v2.8h3.6c0.8 0 1.5-0.7 1.5-1.4s-0.7-1.4-1.5-1.4h-3.6zm4.4 9c0.8 0 1.4-0.6 1.4-1.4s-0.6-1.5-1.4-1.5h-4.4v2.9h4.4zm-8.9 3.6v-16h9.4c2.7 0 4.9 1.6 4.9 4 0 1.9-1.2 3.1-2.3 3.5 1.9 0.7 3.2 2 3.2 4.1 0 2.6-2.2 4.3-5 4.3h-10.2v0.1zm-21.2 3.6h1v-23.2h-1v23.2zm17.9 0h1v-23.2h-1v23.2zm-20.1-17.3-2.9 2.1c-1.3-1.2-3.1-1.4-4-1.4-1 0-2 0.3-2.1 1-0.2 0.7 0.5 1.2 1.6 1.5 1.2 0.3 2.4 0.6 4.1 1.1 2.6 0.7 4.3 1.8 4.3 4.4 0 3.5-3.1 5.4-7.4 5.4-4.2 0-7.1-2.2-8-3.2l3-2.3c2.1 1.8 3.6 2.1 4.8 2.1 1.4 0 2.7-0.3 2.9-1.1 0.1-0.6-0.4-1.2-1.6-1.4-1.4-0.3-2.5-0.6-3.8-0.9-3.5-0.9-4.5-2.9-4.5-4.8 0-2.5 2.3-5.1 6.6-5.1 4.4 0.1 7 2.6 7 2.6zm18.2-2.3v3.6h-8.3v2.5h5.9v3.5h-5.9v2.6h8.5v3.7h-13v-15.9h12.8z" clip-rule="evenodd" fill="#fff" fill-rule="evenodd"/>
</svg>

<?xml version="1.0" encoding="utf-8"?>
<!-- Generator: Adobe Illustrator 19.2.1, SVG Export Plug-In . SVG Version: 6.00 Build 0)  -->
<svg version="1.1" id="Layer_1" xmlns="http://www.w3.org/2000/svg" xmlns:xlink="http://www.w3.org/1999/xlink" x="0px" y="0px"
	 viewBox="0 0 88 31" style="enable-background:new 0 0 88 31;" xml:space="preserve">
<style type="text/css">
	.st0{fill:#60CD18;}
	.st1{fill-rule:evenodd;clip-rule:evenodd;fill:#FFFFFF;}
</style>
<rect x="0.1" y="0" class="st0" width="88" height="31"/>
<path class="st1" d="M59.9,10.9v2.8h3.6c0.8,0,1.5-0.7,1.5-1.4c0-0.7-0.7-1.4-1.5-1.4H59.9L59.9,10.9z M64.3,19.9L64.3,19.9
	c0.8,0,1.4-0.6,1.4-1.4c0-0.8-0.6-1.5-1.4-1.5h-4.4v2.9L64.3,19.9L64.3,19.9z M55.4,23.5L55.4,23.5V7.5h9.4c2.7,0,4.9,1.6,4.9,4
	c0,1.9-1.2,3.1-2.3,3.5c1.9,0.7,3.2,2,3.2,4.1c0,2.6-2.2,4.3-5,4.3H55.4L55.4,23.5z M34.2,27.1L34.2,27.1h1V3.9h-1V27.1L34.2,27.1z
	 M52.1,27.1L52.1,27.1h1V3.9h-1V27.1L52.1,27.1z M32,9.8L32,9.8l-2.9,2.1c-1.3-1.2-3.1-1.4-4-1.4c-1,0-2,0.3-2.1,1
	c-0.2,0.7,0.5,1.2,1.6,1.5c1.2,0.3,2.4,0.6,4.1,1.1c2.6,0.7,4.3,1.8,4.3,4.4c0,3.5-3.1,5.4-7.4,5.4c-4.2,0-7.1-2.2-8-3.2l3-2.3
	c2.1,1.8,3.6,2.1,4.8,2.1c1.4,0,2.7-0.3,2.9-1.1c0.1-0.6-0.4-1.2-1.6-1.4c-1.4-0.3-2.5-0.6-3.8-0.9c-3.5-0.9-4.5-2.9-4.5-4.8
	c0-2.5,2.3-5.1,6.6-5.1C29.4,7.3,32,9.8,32,9.8L32,9.8z M50.2,7.5L50.2,7.5v3.6h-8.3v2.5h5.9v3.5h-5.9v2.6h8.5v3.7h-13V7.5H50.2z"/>
</svg>
